assets/features/payment-flow/KTB ธนาคารกรุงไทย.svg

<svg width="200" height="200" viewBox="0 0 200 200" fill="none" xmlns="http://www.w3.org/2000/svg">
<rect width="200" height="200" rx="40" fill="#00A4E4"/>
<path fill-rule="evenodd" clip-rule="evenodd" d="M148.359 101.467C148.218 102.497 147.188 108.958 145.644 109.333C145.613 109.333 145.597 109.317 145.597 109.286C144.895 109.614 144.333 109.193 144.333 109.193C143.818 113.125 141.103 119.025 137.172 127.031C134.316 132.884 131.414 138.503 133.755 140.797C135.721 142.763 139.138 138.315 138.061 140.563C136.797 143.325 134.27 143.793 132.07 142.81C125.844 139.86 136.61 116.543 136.61 116.543L136.423 116.684C136.423 116.684 130.619 114.952 131.134 101.373C131.134 101.373 123.925 104.229 117.981 99.3132C127.623 107.882 123.036 122.818 123.036 122.818C127.202 145.198 107.59 149.225 107.59 149.225C97.807 151.847 90.9264 146.977 90.9264 146.977L90.7859 146.837C79.4587 145.198 74.9184 140.001 75.3396 132.79C75.8077 125.018 82.2671 122.911 85.684 123.098C88.9605 123.286 90.8796 125.299 91.1136 126.75C91.1136 126.75 84.5138 124.175 80.0671 128.389C79.2714 129.185 78.7097 130.215 78.4289 131.199C76.6502 137.285 81.0969 141.78 86.9946 143.325C85.1691 141.078 85.0287 137.8 85.684 135.834C87.1818 131.386 90.4583 131.058 91.8625 131.245C91.8625 131.245 88.1648 133.118 87.9307 138.456C87.7903 142.389 92.5646 144.168 92.5646 144.168C108.198 144.73 110.585 132.369 110.585 132.369C105.249 133.212 103.003 131.714 101.505 130.262C98.9772 129.981 95.8411 128.904 95.3262 126.423C94.9518 124.597 95.5603 123.473 96.4496 123.098C96.4496 123.098 96.2156 125.533 99.4452 126.938C99.6013 127 99.7729 127.063 99.9601 127.125C99.7729 125.814 99.9601 124.503 100.569 123.801C101.083 123.192 101.692 123.052 102.207 123.098C102.207 123.098 100.054 127.406 103.751 127.5C104.5 127.546 105.109 127.5 105.671 127.359L106.045 127.266C109.509 126.095 112.645 121.6 112.645 117.761C112.645 112.938 109.462 108.958 105.296 108.35L103.19 110.504C101.786 111.768 100.007 112.657 100.007 112.657C102.956 114.436 100.943 116.731 99.7261 116.918C100.288 114.952 98.7431 114.436 97.7134 114.624C97.6198 114.858 97.4325 115.045 97.1517 115.232C97.1049 115.279 97.0581 115.279 97.0113 115.326C96.8865 115.389 96.7304 115.451 96.5432 115.513C92.471 117.246 89.1009 116.45 89.1009 116.45C89.1321 116.45 89.1477 116.434 89.1477 116.403C88.5392 116.263 88.0243 115.935 87.6031 115.326C85.4499 116.169 87.135 118.135 87.9307 118.51C86.0116 118.791 84.7478 117.667 84.5138 116.075C84.1862 113.921 86.1521 112.891 86.1521 112.891C89.7562 110.644 95.0454 112.376 95.0454 112.376C98.7899 111.58 101.318 107.366 101.318 107.366C96.4964 106.196 93.8752 104.136 93.8752 104.136C93.2199 105.072 92.4242 105.915 92.4242 105.915C91.7221 106.477 91.0668 106.898 91.0668 106.898C92.1902 108.397 91.254 111.206 88.586 110.644C89.9434 109.942 89.3349 108.397 88.3052 108.35C88.0867 108.599 87.8527 108.802 87.6031 108.958V109.005H87.5563C87.369 109.13 87.1818 109.224 86.9946 109.286C84.2798 110.363 80.3948 109.614 80.348 109.661V109.614C79.9267 109.567 79.5055 109.38 79.0842 109.005C77.5396 109.333 77.8672 110.925 78.8034 111.44C75.6205 112.564 73.8886 107.835 78.2417 106.149C83.016 104.229 87.4158 106.149 87.4158 106.149C90.9732 104.979 91.3944 101.701 91.3944 101.701C89.3817 99.9219 87.8839 97.8149 87.0882 95.4739C87.0882 95.5207 87.0414 95.5675 86.9946 95.5675C87.0258 95.6612 87.0414 95.708 87.0414 95.708C83.3904 102.403 75.7141 100.203 75.7141 100.203C73.7482 107.741 67.3824 107.928 67.3824 107.928C67.3824 107.928 67.5697 114.952 63.123 116.871C65.2293 128.108 72.0631 136.958 67.3824 140.61C65.6038 142.061 62.2337 141.593 61.3443 138.315C60.9231 136.77 63.6379 140.61 65.6038 138.69C67.5697 136.77 62.5613 128.764 59.8465 123.333C56.4764 116.497 54.885 108.303 54.8382 108.209C54.8382 108.209 54.8382 108.225 54.8382 108.256C54.1829 108.958 53.6212 108.912 53.2467 108.537C53.1999 108.537 53.1063 108.49 53.1063 108.49C51.8425 107.226 51.234 99.9219 51.234 99.9219C51.1404 99.0791 51.0468 97.4872 51.0468 96.1294C51.0156 95.6924 51 95.271 51 94.8652C51 94.1629 51 93.6947 51 93.6947C51.234 81.5679 56.6168 78.9928 56.6168 78.9928C53.9488 78.8991 55.5871 76.4176 55.5871 76.4176C59.1444 69.8158 64.0123 65.7424 67.9441 63.0267C75.3396 57.9232 79.5991 60.9666 79.131 63.5417C77.8204 71.5482 85.684 67.8493 87.6031 64.4782C89.5222 61.1539 91.8625 58.2509 91.8625 58.2509L92.237 57.6423C89.8966 57.9232 88.1179 56.659 87.7435 54.833C87.4627 53.7093 88.0243 52.3515 89.1945 52.5387C89.9902 52.6324 90.4115 53.4283 90.2243 53.9902C90.037 54.5052 89.5222 54.8798 89.0073 54.5989C89.4285 56.0972 91.4412 56.7995 93.5476 55.9099L94.0156 55.348C94.0156 55.348 93.3603 55.3948 92.9859 55.348C91.5817 55.1139 91.4412 53.9902 91.5349 53.4752C91.6285 52.8197 92.4242 52.1174 93.0795 52.3515C94.4837 52.8665 93.4539 54.4116 92.7986 53.8966C92.9859 54.9735 95.7475 53.8497 95.7475 53.8497C102.769 46.171 109.134 52.3515 109.134 52.3515C111.241 51.9301 112.224 53.9902 112.224 53.9902C118.589 54.0838 116.623 57.7359 115.5 58.3446C114.938 56.5186 112.832 57.0336 111.241 57.3613C108.573 57.8764 107.59 58.6723 106.139 59.796C103.986 61.4816 102.535 63.5886 101.879 66.351C101.271 68.9262 103.564 72.0632 107.402 72.5314C110.632 72.9528 114.751 71.2204 114.377 66.8192C113.768 60.4984 120.087 59.4215 125.751 62.0435C136.282 66.9129 141.759 73.3274 141.759 73.3274C145.035 76.9795 142.04 77.2136 142.04 77.2136C144.895 80.0228 146.533 82.9258 147.422 84.9859C147.454 85.0483 147.485 85.1264 147.516 85.22C147.578 85.3761 147.656 85.5634 147.75 85.7819C148.218 87.046 148.405 87.8888 148.405 87.8888C148.452 88.0293 148.452 88.1697 148.452 88.3102C149.107 91.1663 149.529 95.5675 148.359 101.467ZM106.045 127.266C105.983 127.266 105.936 127.281 105.905 127.312C105.967 127.281 106.014 127.266 106.045 127.266ZM102.675 53.1942C102.722 53.8966 103.283 54.5052 103.798 54.5989C104.781 54.7862 104.968 54.2243 106.139 54.1775C105.905 53.9902 105.671 53.7561 105.343 53.522C105.202 54.0838 104.734 54.4584 104.173 54.3648C103.611 54.2711 103.143 53.7093 103.237 53.0538C103.237 53.0538 103.237 53.0382 103.237 53.007C103.003 53.0538 102.909 53.1006 102.675 53.1942ZM103.845 53.3815C103.845 53.6625 104.032 53.8497 104.313 53.8497C104.547 53.8497 104.734 53.6625 104.734 53.3815C104.734 53.2879 104.719 53.2099 104.688 53.1474C104.5 53.0538 104.266 53.007 104.079 52.9601C103.939 53.0538 103.845 53.1942 103.845 53.3815ZM114.049 131.62L113.675 133.071C110.351 145.9 97.4325 146.79 97.4325 146.79C105.53 148.803 112.692 144.215 115.781 140.984C120.415 136.208 119.806 128.342 119.806 128.342C119.525 126.891 118.964 127.874 118.964 127.874C117.279 130.824 114.049 131.62 114.049 131.62Z" fill="white"/>
</svg>

<svg xmlns="http://www.w3.org/2000/svg" width="200" height="200" fill="none" viewBox="0 0 200 200"><rect width="200" height="200" fill="#00a4e4" rx="40"/><path fill="#fff" fill-rule="evenodd" d="M148.359 101.467c-.141 1.03-1.171 7.491-2.715 7.866q-.047 0-.047-.047c-.702.328-1.264-.093-1.264-.093-.515 3.932-3.23 9.832-7.161 17.838-2.856 5.853-5.758 11.472-3.417 13.766 1.966 1.966 5.383-2.482 4.306-.234-1.264 2.762-3.791 3.23-5.991 2.247-6.226-2.95 4.54-26.267 4.54-26.267l-.187.141s-5.804-1.732-5.289-15.311c0 0-7.209 2.856-13.153-2.06 9.642 8.569 5.055 23.505 5.055 23.505 4.166 22.38-15.446 26.407-15.446 26.407-9.783 2.622-16.664-2.248-16.664-2.248l-.14-.14c-11.327-1.639-15.868-6.836-15.446-14.047.468-7.772 6.927-9.879 10.344-9.692 3.276.188 5.196 2.201 5.43 3.652 0 0-6.6-2.575-11.047 1.639a6.64 6.64 0 0 0-1.638 2.81c-1.779 6.086 2.668 10.581 8.566 12.126-1.826-2.247-1.966-5.525-1.311-7.491 1.498-4.448 4.774-4.776 6.179-4.589 0 0-3.698 1.873-3.932 7.211-.14 3.933 4.634 5.712 4.634 5.712 15.633.562 18.02-11.799 18.02-11.799-5.336.843-7.582-.655-9.08-2.107-2.528-.281-5.664-1.358-6.179-3.839-.374-1.826.234-2.95 1.124-3.325 0 0-.234 2.435 2.995 3.84q.234.094.515.187c-.187-1.311 0-2.622.609-3.324.514-.609 1.123-.749 1.638-.703 0 0-2.153 4.308 1.544 4.402.749.046 1.358 0 1.92-.141l.374-.093c3.464-1.171 6.6-5.666 6.6-9.505 0-4.823-3.183-8.803-7.349-9.411l-2.106 2.154c-1.404 1.264-3.183 2.153-3.183 2.153 2.949 1.779.936 4.074-.28 4.261.561-1.966-.984-2.482-2.014-2.294-.093.234-.28.421-.561.608-.047.047-.094.047-.14.094q-.189.094-.469.187c-4.072 1.733-7.442.937-7.442.937q.047 0 .047-.047c-.609-.14-1.124-.468-1.545-1.077-2.153.843-.468 2.809.328 3.184-1.92.281-3.183-.843-3.417-2.435-.328-2.154 1.638-3.184 1.638-3.184 3.604-2.247 8.893-.515 8.893-.515 3.745-.796 6.273-5.01 6.273-5.01-4.822-1.17-7.443-3.23-7.443-3.23-.655.936-1.45 1.779-1.45 1.779-.703.562-1.358.983-1.358.983 1.123 1.499.187 4.308-2.481 3.746 1.357-.702.749-2.247-.28-2.294a3.2 3.2 0 0 1-.703.608v.047h-.047a2.3 2.3 0 0 1-.561.281c-2.715 1.077-6.6.328-6.647.375v-.047c-.421-.047-.843-.234-1.264-.609-1.544.328-1.217 1.92-.28 2.435-3.183 1.124-4.915-3.605-.562-5.291 4.774-1.92 9.174 0 9.174 0 3.557-1.17 3.978-4.448 3.978-4.448-2.012-1.78-3.51-3.886-4.306-6.227a.1.1 0 0 1-.093.093l.046.141c-3.65 6.695-11.327 4.495-11.327 4.495-1.966 7.538-8.332 7.725-8.332 7.725s.188 7.024-4.259 8.943c2.106 11.237 8.94 20.087 4.26 23.739-1.78 1.451-5.15.983-6.039-2.295-.42-1.545 2.294 2.295 4.26.375s-3.043-9.926-5.757-15.357c-3.37-6.836-4.962-15.03-5.009-15.124v.047c-.655.702-1.217.656-1.591.281-.047 0-.14-.047-.14-.047-1.264-1.264-1.873-8.568-1.873-8.568a40 40 0 0 1-.187-3.793A18 18 0 0 1 51 94.865v-1.17c.234-12.127 5.617-14.702 5.617-14.702-2.668-.094-1.03-2.575-1.03-2.575 3.557-6.602 8.425-10.676 12.357-13.391 7.396-5.104 11.655-2.06 11.187.515-1.31 8.006 6.553 4.307 8.472.936 1.92-3.324 4.26-6.227 4.26-6.227l.374-.609c-2.34.281-4.12-.983-4.493-2.809-.281-1.124.28-2.481 1.45-2.294.796.093 1.218.89 1.03 1.451-.187.515-.702.89-1.217.609.421 1.498 2.434 2.2 4.54 1.31l.469-.561s-.656.047-1.03 0c-1.404-.234-1.545-1.358-1.451-1.873.094-.655.89-1.358 1.544-1.123 1.405.515.375 2.06-.28 1.545.187 1.077 2.948-.047 2.948-.047 7.022-7.679 13.387-1.498 13.387-1.498 2.107-.422 3.09 1.638 3.09 1.638 6.365.094 4.399 3.746 3.276 4.355-.562-1.826-2.668-1.311-4.259-.984-2.668.515-3.651 1.311-5.102 2.435-2.153 1.686-3.604 3.793-4.26 6.555-.608 2.575 1.685 5.712 5.523 6.18 3.23.422 7.349-1.31 6.975-5.712-.609-6.32 5.71-7.398 11.374-4.776 10.531 4.87 16.008 11.284 16.008 11.284 3.276 3.653.281 3.887.281 3.887 2.855 2.809 4.493 5.712 5.382 7.772q.048.093.094.234.093.234.234.562c.468 1.264.655 2.107.655 2.107.047.14.047.28.047.421.655 2.856 1.077 7.257-.093 13.157m-42.314 25.799q-.093 0-.14.046a.4.4 0 0 1 .14-.046m-3.37-74.072c.047.703.608 1.311 1.123 1.405.983.187 1.17-.375 2.341-.421-.234-.188-.468-.422-.796-.656-.141.562-.609.936-1.17.843a1.166 1.166 0 0 1-.936-1.311v-.047c-.234.047-.328.094-.562.187m1.17.188c0 .28.187.468.468.468.234 0 .421-.187.421-.468a.5.5 0 0 0-.046-.235c-.188-.093-.422-.14-.609-.187a.49.49 0 0 0-.234.422m10.204 78.238-.374 1.451c-3.324 12.829-16.242 13.719-16.242 13.719 8.097 2.013 15.259-2.575 18.348-5.806 4.634-4.776 4.025-12.642 4.025-12.642-.281-1.451-.842-.468-.842-.468-1.685 2.95-4.915 3.746-4.915 3.746" clip-rule="evenodd"/></svg>
